public/img/placeholder.svg

<svg width="480" height="480" viewBox="0 0 480 480" fill="none" xmlns="http://www.w3.org/2000/svg">
<path fill-rule="evenodd" clip-rule="evenodd" d="M240 368C310.692 368 368 310.692 368 240C368 169.308 310.692 112 240 112C169.308 112 112 169.308 112 240C112 310.692 169.308 368 240 368ZM220 160C220 155.582 223.582 152 228 152C232.418 152 236 155.582 236 160V292C236 296.418 232.418 300 228 300C223.582 300 220 296.418 220 292V160ZM244 188C244 183.582 247.582 180 252 180C256.418 180 260 183.582 260 188V320C260 324.418 256.418 328 252 328C247.582 328 244 324.418 244 320V188ZM204 184C199.582 184 196 187.582 196 192V268C196 272.418 199.582 276 204 276C208.418 276 212 272.418 212 268V192C212 187.582 208.418 184 204 184ZM268 212C268 207.582 271.582 204 276 204C280.418 204 284 207.582 284 212V288C284 292.418 280.418 296 276 296C271.582 296 268 292.418 268 288V212ZM180 214C175.582 214 172 217.582 172 222V242C172 246.418 175.582 250 180 250C184.418 250 188 246.418 188 242V222C188 217.582 184.418 214 180 214ZM148 232C148 227.582 151.582 224 156 224C160.418 224 164 227.582 164 232C164 236.418 160.418 240 156 240C151.582 240 148 236.418 148 232ZM300 230C295.582 230 292 233.582 292 238V258C292 262.418 295.582 266 300 266C304.418 266 308 262.418 308 258V238C308 233.582 304.418 230 300 230ZM316 248C316 243.582 319.582 240 324 240C328.418 240 332 243.582 332 248C332 252.418 328.418 256 324 256C319.582 256 316 252.418 316 248Z" fill="#90A4AE" fill-opacity="0.3"/>
</svg>

<svg width="480" height="480" viewBox="0 0 480 480" fill="none" xmlns="http://www.w3.org/2000/svg"><path fill-rule="evenodd" clip-rule="evenodd" d="M240 368c70.692 0 128-57.308 128-128s-57.308-128-128-128-128 57.308-128 128 57.308 128 128 128m-20-208a8 8 0 0 1 16 0v132a8 8 0 0 1-16 0zm24 28a8 8 0 0 1 16 0v132a8 8 0 0 1-16 0zm-40-4a8 8 0 0 0-8 8v76a8 8 0 0 0 16 0v-76a8 8 0 0 0-8-8m64 28a8 8 0 0 1 16 0v76a8 8 0 0 1-16 0zm-88 2a8 8 0 0 0-8 8v20a8 8 0 0 0 16 0v-20a8 8 0 0 0-8-8m-32 18a8 8 0 1 1 16 0 8 8 0 0 1-16 0m152-2a8 8 0 0 0-8 8v20a8 8 0 0 0 16 0v-20a8 8 0 0 0-8-8m16 18a8 8 0 1 1 16 0 8 8 0 0 1-16 0" fill="#90A4AE" fill-opacity=".3"/></svg>
